packages/crayons-core/src/components/icon/icon-assets/icons/email-forward.svg

<?xml version="1.0" encoding="UTF-8"?>
<svg width="16px" height="15px" viewBox="0 0 16 15" version="1.1" xmlns="http://www.w3.org/2000/svg" xmlns:xlink="http://www.w3.org/1999/xlink">
    <!-- Generator: Sketch 52.6 (67491) - http://www.bohemiancoding.com/sketch -->
    <title>icon/email-forward</title>
    <desc>Created with Sketch.</desc>
    <g id="Icons-✅" stroke="none" stroke-width="1" fill="none" fill-rule="evenodd">
        <g id="Icons" transform="translate(-572.000000, -2125.000000)" fill="currentColor">
            <g id="icon/email-forward" transform="translate(572.000000, 2126.000000)">
                <g id="email-forward" transform="translate(0.000000, -1.000000)">
                    <path d="M13.69,4.54 L9.06,7.75 C8.76698686,7.95366518 8.41673492,8.05874076 8.06,8.05 C7.70488012,8.05766904 7.35591944,7.95647044 7.06,7.76 L2.31,4.54 C2.08711311,4.40741872 1.9557916,4.16247471 1.96873235,3.90345946 C1.98167311,3.6444442 2.13675519,3.41380931 2.37174704,3.30410427 C2.60673889,3.19439924 2.88312625,3.2236043 3.09,3.38 L7.85,6.6 C7.94927751,6.66868693 8.08072249,6.66868693 8.18,6.6 L12.91,3.38 C13.1168737,3.2236043 13.3932611,3.19439924 13.628253,3.30410427 C13.8632448,3.41380931 14.0183269,3.6444442 14.0312676,3.90345946 C14.0442084,4.16247471 13.9128869,4.40741872 13.69,4.54 Z M14.3,0.66 C15.2388841,0.66 16,1.42111593 16,2.36 L16,10.26 L14.6,8.86 L14.6,2.36 C14.6,2.19431458 14.4656854,2.06 14.3,2.06 L1.7,2.06 C1.53431458,2.06 1.4,2.19431458 1.4,2.36 L1.4,11 C1.3971764,11.0803973 1.4278758,11.1583551 1.48476035,11.2152397 C1.5416449,11.2721242 1.61960266,11.3028236 1.7,11.3 L7.15,11.3 C7.05440284,11.5211825 7.00342762,11.7590669 7,12 C7.00063695,12.2423258 7.05529639,12.4814609 7.16,12.7 L1.7,12.7 C0.761115925,12.7 1.14980138e-16,11.9388841 0,11 L0,2.36 C1.14980138e-16,1.42111593 0.761115925,0.66 1.7,0.66 L14.3,0.66 Z M16,12 C16.0030261,12.0805136 15.9963108,12.1610978 15.98,12.24 C15.9420175,12.3262784 15.8876836,12.4043833 15.82,12.47 L13.82,14.47 C13.6927456,14.6047643 13.5153496,14.6807911 13.33,14.68 C13.0483971,14.6745718 12.7966278,14.5031982 12.6882989,14.2432088 C12.57997,13.9832194 12.6355659,13.6837769 12.83,13.48 L13.61,12.7 L8.7,12.7 C8.31340068,12.7 8,12.3865993 8,12 C8,11.6134007 8.31340068,11.3 8.7,11.3 L13.58,11.3 L12.8,10.53 C12.5254444,10.2532022 12.5254444,9.80679776 12.8,9.53 C12.9302531,9.39303562 13.1109892,9.31549974 13.3,9.31549974 C13.4890108,9.31549974 13.6697469,9.39303562 13.8,9.53 L15.8,11.53 C15.9333533,11.6490503 16.0066774,11.8213621 16,12 Z" id="Combined-Shape"></path>
                </g>
            </g>
        </g>
    </g>
</svg>

<svg viewBox="0 0 16 15"><path d="M13.69 4.54L9.06 7.75a1.68 1.68 0 0 1-1 .3 1.74 1.74 0 0 1-1-.29L2.31 4.54a.7.7 0 1 1 .78-1.16L7.85 6.6c.1.069.23.069.33 0l4.73-3.22a.7.7 0 1 1 .78 1.16zM14.3.66a1.7 1.7 0 0 1 1.7 1.7v7.9l-1.4-1.4v-6.5a.3.3 0 0 0-.3-.3H1.7a.3.3 0 0 0-.3.3V11a.29.29 0 0 0 .3.3h5.45A1.83 1.83 0 0 0 7 12c0 .242.055.481.16.7H1.7A1.7 1.7 0 0 1 0 11V2.36A1.7 1.7 0 0 1 1.7.66h12.6zM16 12a1 1 0 0 1-.02.24.73.73 0 0 1-.16.23l-2 2a.67.67 0 0 1-.49.21.71.71 0 0 1-.5-1.2l.78-.78H8.7a.7.7 0 0 1 0-1.4h4.88l-.78-.77a.71.71 0 0 1 0-1 .69.69 0 0 1 1 0l2 2a.6.6 0 0 1 .2.47z" fill="currentColor" fill-rule="evenodd"/></svg>
